src/dark/hiso font dark_w.svg

<svg xmlns="http://www.w3.org/2000/svg" width="90" height="126" viewBox="0 0 90 126"><path fill="#000101" d="M36 9v35.27l-36-17.64v72.37l36 18 14.4-28.8 21.6 10.8v-72l-36-18zm0 104.65l-33-16.5v-65.3l33 16.5v65.3zm3-9.36v-27.44l10.969 5.49-10.969 21.95zm15-23.29l-15-7.5v-59.65l30 15v67.15l-15-15z"/></svg>

<svg xmlns="http://www.w3.org/2000/svg" width="90" height="126"><path fill="#000101" d="M36 9v35.27L0 26.63V99l36 18 14.4-28.8L72 99V27L36 9zm0 104.65L3 97.15v-65.3l33 16.5v65.3zm3-9.36V76.85l10.969 5.49L39 104.29zM54 81l-15-7.5V13.85l30 15V96L54 81z"/></svg>
